X: 1
T: Road to Errogie
C: Adam Sutherland
R: reel
S: Barbara McOwen
B: BSFC Session Tune Book 2016 p.32
Z: 2019 John Chambers <jc:trillian.mit.edu>
M: C|
L: 1/8
K: B
BG |\
"B"FB B/B/B cBcd | fB B/B/B "B7"cdfB |\
"E"g3g "/D#"fdBc- | "C#m"cBcd "F#7"cBGB |\
"B"FB B/B/B cBcd | fB B/B/B "B7"cBbB |
"E"g3g "C#m"fdBc- | "F#7"cBcd "B"B2 :| fB |\
"B"b3b- b2c'b | d'3c' "B7"b2bg |\
"E"fggf "/D#"bffg- | "C#m"gfbf "F#7"gfdf |
"B"b3b- b2c'b | d'3c' "B7"b2bg |\
"E"fg g/g/g "C#m"fdBc- |"F#7"cBcd "B"B2fB ||\
"B"b3b- b2c'b | d'3c' "B7"b2bg |
"E"fggf "/D#"bffg- | "C#m"gfbf "F#7"gfdB |\
"B"FB B/B/B cBcd | fB B/B/B "B7"cBbB |\
"E"g3g "C#m"fdBc- | "F#7"cBcd "B"B2 :|


